X: 2614
T: Baltimore Fox, The
R: reel
M: 4/4
K: Gmajor
|:A2 aA gedB|c^ceA- A2 GB|A2 af gfga|b_bag e_edc|
A2 aA gedB|c^ceA- A2 GB|A2 cA ^cAdA|e2 dc A2 GB:|
|:AaaA ggA=f|=fAee dcAG|AaaA g3 a|b_bag e_edc|
AaaA ggA=f|=fAee dcAG|A2 cA ^cAdA|e2 dc dcAG:|

